site/assets/images/header-components.svg

<?xml version="1.0" encoding="UTF-8" standalone="no"?>
<svg width="60px" height="67px" viewBox="0 0 60 67" version="1.1" xmlns="http://www.w3.org/2000/svg" xmlns:xlink="http://www.w3.org/1999/xlink" xmlns:sketch="http://www.bohemiancoding.com/sketch/ns">
    <!-- Generator: Sketch 3.3.3 (12072) - http://www.bohemiancoding.com/sketch -->
    <title>Untitled</title>
    <desc>Created with Sketch.</desc>
    <defs></defs>
    <g id="Page-1" stroke="none" stroke-width="1" fill="none" fill-rule="evenodd" sketch:type="MSPage">
        <path d="M12.8741342,40.3284247 C7.2437703,44.6279467 1.49428842,46.018317 1.39368241,46.0951832 L0.108986277,46.1280366 C0.108986277,46.1280366 -0.0661354934,45.6951571 0.0275916515,45.3589267 C0.099120262,45.1016492 0.251338783,44.4332723 0.251338783,44.4332723 C0.268251952,44.2852356 5.75587058,22.1141099 5.8097813,21.8809948 C5.87461512,21.6019372 6.09307688,21.2755759 6.19138468,21.1932199 C6.28898776,21.1105236 29.0079544,2.00188482 29.1372696,1.89332461 C29.1372696,1.89332461 29.5012551,1.57581152 29.7718658,1.36753927 C30.1707347,1.06091623 30.6717874,1 30.6717874,1 L31.2486058,2.63384817 C31.2486058,2.63384817 38.6094656,9.20787709 37.0162809,15.5975834 C35.531776,21.5514131 25.0871707,27.3452098 25.0457011,27.5114921 L25.9211426,27.8666992 L23.9431648,29.9602051 C23.8749467,30.0127474 18.2866998,36.1952203 12.8741342,40.3284247 Z" id="Fill-1" fill="#CCD0FF" sketch:type="MSShapeGroup"></path>
        <path d="M41.9890609,30.7149229 C49.9993955,35.8528894 55.1220741,47.9765006 55.2493324,48.0656732 L54.9329147,48.8760637 C54.8568066,48.9342581 54.603109,49.1282371 54.603109,49.1282371 C54.4167118,49.2606193 31.3087423,65.6644413 31.0279132,65.8495722 C30.2788008,66.3437083 29.4863484,66.1143366 29.1276482,65.8682895 C28.8982634,65.7110644 0.761092605,47.5209335 0.604293434,47.4123733 C0.152218521,47.0999649 0,46.5837083 0,46.5837083 L0.470045155,46.2032371 C0.470045155,46.2032371 23.337002,28.7366141 23.4342527,28.6627659 L23.8422829,28.3391272 L24.1455078,27.9453125 C24.1455078,27.9453125 35.0505388,26.2644354 41.9890609,30.7149229 Z" id="Fill-2" fill="#696CB4" sketch:type="MSShapeGroup"></path>
        <path d="M30.5950788,1.50409034 L30.7286224,1.0024673 C30.7286224,1.0024673 31.0587816,0.988514423 31.3272781,1.02696992 C31.6176208,1.06882856 31.9206485,1.25259819 31.9206485,1.25259819 C31.9206485,1.25259819 58.7318973,18.6453731 59.1254808,18.9149019 C59.8464046,19.4083574 59.8749456,20.1580694 59.8456999,20.3166558 C59.8400622,20.3486453 55.7604649,46.7389856 55.7217055,46.9870746 C55.7217055,46.9870746 55.6903457,47.270216 55.6484151,47.4580694 C55.5642016,47.8351375 55.4070501,48.0726767 55.4070501,48.0726767 L54.6730891,47.5445092 C54.5215752,47.4335668 24.7491124,28.3399019 24.4101443,28.1289071 L24,27.8621008 L24.121211,27.4401113 C24.1338959,27.3883835 30.5517388,1.58576573 30.5950788,1.50409034 Z" id="Fill-3" fill="#8384E3" sketch:type="MSShapeGroup"></path>
    </g>
</svg>

<svg width="60" height="67" xmlns="http://www.w3.org/2000/svg"><g fill="none" fill-rule="evenodd"><path d="M12.874 40.328c-5.63 4.3-11.38 5.69-11.48 5.767l-1.285.033s-.176-.433-.082-.77c.07-.256.223-.925.223-.925.018-.148 5.506-22.32 5.56-22.552.065-.278.283-.604.38-.687.1-.082 22.818-19.19 22.947-19.3 0 0 .364-.317.635-.525.4-.307.9-.368.9-.368l.577 1.634s7.36 6.574 5.766 12.964c-1.484 5.953-11.93 11.747-11.97 11.913l.875.357-1.977 2.093c-.068.053-5.656 6.235-11.07 10.368z" fill="#CCD0FF"/><path d="M41.99 30.715C50 35.853 55.12 47.977 55.25 48.065l-.317.81c-.076.06-.33.253-.33.253-.186.133-23.294 16.536-23.575 16.722-.75.494-1.542.264-1.9.018C28.898 65.71.76 47.52.604 47.412.152 47.1 0 46.584 0 46.584l.47-.38 22.964-17.54.408-.325.304-.395s10.905-1.68 17.843 2.77z" fill="#696CB4"/><path d="M30.595 1.504l.134-.502s.33-.013.597.025c.29.042.594.226.594.226s26.812 17.392 27.205 17.662c.72.493.75 1.243.72 1.402l-4.123 26.67s-.032.283-.074.47c-.084.378-.24.616-.24.616l-.735-.528c-.15-.11-29.924-19.205-30.263-19.416L24 27.86l.12-.422c.014-.052 6.432-25.854 6.475-25.936z" fill="#8384E3"/></g></svg>
